X:113
%%pagewidth 8in
%%vocalfont Baskerville10Pro 13
T:Peg A Ramsey
M:2/4
L:1/8
K:F
%%score 1 2
V:1 clef-treble
V:2 clef-bass octave=-1
V:1
[FAc]d[Gc_e]c|[Bd]B [DB]d|[Fc]F[DF][=EG]|[FA]2[DFB]2|[FAc]d[Gc_e]c|
w:When I was a Bache-*lor, I liv'd a mer-ry life, But now I am a
V:2
F2c2|G2G2|A2[CB]2|[FA]2B,2|F2c2|
V:1
[Bd]B [DB]d|[Fc]F[DF][=EG]|[FA]2[DFB]2|[CFA]F[CF]A|[EG]CCE|
w:mar-ried man, And troub-led with a wife, I can-not do as I have done, Be
V:2
G2G2|A2[CB]2|[FA]2B,2|F,2A,2|C2B,2|
V:1
[CF]F[DF][EG]|[FA]2[DFB]2|[CFA]F[CF]A|[EG]CCE|[CF]F[DF][EG]|([FA]2[DFB]2)||
w:cause I live in fear, If I go but to Is-ling-ton, My wife is watch-ing there.*
V:2
A,2[CB]2|[FA]2B,2|F,2A,2|C2B,2|A,2[CB]2|[FA]2B,2||

